X:205
T:The Apostle Looked and Heard a Voice
%%stretchlast false
M:4/4
L:1/4
K:Eb clef=C1
"^I"[E,G,B,E] [E,B,EG] [E,B,EG] "^V¹"[D,B,F] | "^V"[B,,F,DB] "^i"[E,B,A]/ "^I"[E,B,G]/ [E,,G,B,F]/ [E,,G,B,E]/ "^V"[B,,D,B,F] | "^♯iii°"[A,,D,B,] "^I¹"[G,,E,B,E]/ [G,,E,B,F]/ "^I"[E,B,EG] "^V¹"[D,B,F] | [B,,F,B,E]/ "^V"[B,,F,B,D]/ "^vi"[C,E,G,E] "^vii¹"[F,,F,=A,D]/ "^V/V"[F,,F,=A,C]/ "^V"[B,,F,B,D] | "^V¹"[D,B,F] "^I"[E,B,G] "^IV¹"[C,A,Ec]/ "^vi"[C,G,Ec]/ "^vii"[D,F,F] | "^iii¹"[B,,G,DB]/ "^V"[B,,F,DB]/ "^vi"[C,E,CE]/ "^vi7"[C,G,B,E]/ "^II"[F,,F,=A,F]/ "^V/V"[F,,F,=A,E]/ "^V"[B,,F,B,D] | "^V¹"[D,F,B,F] "^I"[E,B,G] "^♭v°¹"[C,CE=A] "^V¹"[D,B,FB] | "^vi¹"[E,G,CE] "^V²"[F,B,D] "^II"[F,,F,=A,C]/ "^II7"[F,,E,=A,C]/ "^V"[B,,D,B,] | "^I"[E,G,B,] "^V¹"[D,F,B,F] "^II7²"[C,E,=A,F] "^V"[B,,F,B,D] | "^viiø7²"[A,,D,F,C]/ "^V7³"[A,,D,F,B,]/ "^I¹"[G,,E,B,E] "^V"[B,,D,B,F] "^I"[E,B,G] | [E,B,EG] "^V¹"[D,B,FB] "^V"[B,,B,DB] "^IV²"[E,CEA]/ "^I"[E,B,EG]/ | "^iiiø7²"[_D,G,B,F]/ "^V/IV³"[_D,G,B,E]/ "^IV¹"[C,A,EA] "^I"[E,G,EB] "^IV"[A,,A,Ec] | "^I"[E,G,EB] "^IV"[A,Ec] "^V7²"[F,A,DB]/ "^vii°¹"[F,A,DA]/ "^iii"[G,DB] | "^vi"[C,G,E] "^ii"[F,CA] "^iii¹"[B,,B,DG]/ "^V"[B,,B,DF]/ "^I"[E,B,EG] | "^I¹"[G,B,E] "^ii¹"[A,CF] "^I¹"[G,B,E] "^V7²"[F,A,B,D] | "^I"[E,G,E] "^V7¹"[D,B,FA] "^I"[E,B,EG] "^V"[B,,B,DF] | "^I¹"[G,,G,EB]/ "^iii7"[G,,F,DB]/ "^IV"[A,,E,Cc]/ "^viiø7²"[A,,F,Dc]/ "^I¹"[G,,G,EB]/ [A,,G,EB]/ "^V"[B,,F,B,D]/ "^V7"[B,,F,A,D]/ | "^vi"[C,E,G,E]/ "^ii7²"[C,E,A,F]/ "^I²"[B,,E,B,G] "^V7"[B,,D,A,F]/ [B,,D,A,E]/ "^I"[E,,E,G,E] |]
